assets/img/square-18f-dark.svg

<?xml version="1.0" encoding="UTF-8" standalone="no"?>
<svg width="48px" height="48px" viewBox="0 0 48 48" version="1.1" xmlns="http://www.w3.org/2000/svg" xmlns:xlink="http://www.w3.org/1999/xlink">
    <!-- Generator: Sketch 39.1 (31720) - http://www.bohemiancoding.com/sketch -->
    <title>18F-Logo-Black</title>
    <desc>Created with Sketch.</desc>
    <defs>
        <polyline id="path-1" points="0 0.151285714 47.8487143 0.151285714 47.8487143 48 0 48"></polyline>
        <polyline id="path-3" points="0 0.151285714 47.8487143 0.151285714 47.8487143 48 0 48"></polyline>
        <polyline id="path-5" points="0 0.151285714 47.8487143 0.151285714 47.8487143 48 0 48"></polyline>
        <polyline id="path-7" points="0 0.151285714 47.8487143 0.151285714 47.8487143 48 0 48"></polyline>
    </defs>
    <g id="Symbols" stroke="none" stroke-width="1" fill="none" fill-rule="evenodd">
        <g id="Rectangle" transform="translate(-100.000000, -32.000000)">
            <g id="Group" transform="translate(100.000000, 32.000000)">
                <g id="18F-Logo-Black">
                    <g id="Page-1">
                        <g>
                            <g id="18F-Logo-Black">
                                <g id="18FLogo-BlackSq-WhiteType">
                                    <g id="Fill-1-Clipped">
                                        <mask id="mask-2" fill="white">
                                            <use xlink:href="#path-1"></use>
                                        </mask>
                                        <g id="path-1"></g>
                                        <path d="M47.0325643,0.151285714 L0.816064286,0.151285714 C0.365421429,0.151285714 6.42857141e-05,0.516642859 6.42857141e-05,0.9675 L6.42857141e-05,47.1837857 C6.42857141e-05,47.6346429 0.365421429,48 0.816064286,48 L47.0325643,48 C47.4834214,48 47.8487786,47.6346429 47.8487786,47.1837857 L47.8487786,0.9675 C47.8487786,0.516642859 47.4834214,0.151285714 47.0325643,0.151285714" id="Fill-1" fill="#000000" mask="url(#mask-2)"></path>
                                    </g>
                                    <g id="Fill-4-Clipped">
                                        <mask id="mask-4" fill="white">
                                            <use xlink:href="#path-3"></use>
                                        </mask>
                                        <g id="path-1"></g>
                                        <path d="M14.6286429,33.6747643 C14.6286429,33.8309786 14.502,33.9574071 14.346,33.9574071 L12.5466429,33.9574071 C12.3904286,33.9574071 12.264,33.8309786 12.264,33.6747643 L12.264,17.5902643 L9.91371427,17.5902643 C9.7575,17.5902643 9.63085714,17.4638357 9.63085714,17.3076214 L9.63085714,15.5974071 C9.63085714,15.4411929 9.7575,15.3147643 9.91371427,15.3147643 L14.346,15.3147643 C14.502,15.3147643 14.6286429,15.4411929 14.6286429,15.5974071 L14.6286429,33.6747643 L14.6286429,33.6747643 Z" id="Fill-4" fill="#FFFFFF" mask="url(#mask-4)"></path>
                                    </g>
                                    <g id="Fill-6-Clipped">
                                        <mask id="mask-6" fill="white">
                                            <use xlink:href="#path-5"></use>
                                        </mask>
                                        <g id="path-1"></g>
                                        <path d="M39.3057857,17.3076 C39.3057857,17.4638143 39.1791429,17.5902429 39.0229286,17.5902429 L34.0847143,17.5902429 L34.0847143,23.1981 L38.1527143,23.1981 C38.3087143,23.1981 38.4353571,23.3247429 38.4353571,23.4807429 L38.4353571,25.1907429 C38.4353571,25.3469571 38.3087143,25.4733857 38.1527143,25.4733857 L34.0847143,25.4733857 L34.0847143,33.6747429 C34.0847143,33.8309571 33.9582857,33.9573857 33.8022857,33.9573857 L32.0029286,33.9573857 C31.8467143,33.9573857 31.7202857,33.8309571 31.7202857,33.6747429 L31.7202857,15.5973857 C31.7202857,15.4413857 31.8467143,15.3147429 32.0029286,15.3147429 L39.0229286,15.3147429 C39.1791429,15.3147429 39.3057857,15.4413857 39.3057857,15.5973857 L39.3057857,17.3076 L39.3057857,17.3076 Z" id="Fill-6" fill="#FFFFFF" mask="url(#mask-6)"></path>
                                    </g>
                                    <g id="Fill-8-Clipped">
                                        <mask id="mask-8" fill="white">
                                            <use xlink:href="#path-7"></use>
                                        </mask>
                                        <g id="path-1"></g>
                                        <path d="M23.1744429,31.9485643 C21.2784429,31.9485643 19.7362286,30.4059214 19.7362286,28.51035 C19.7362286,26.61435 21.2784429,25.0717071 23.1744429,25.0717071 C25.0702286,25.0717071 26.6124429,26.61435 26.6124429,28.51035 C26.6124429,30.4059214 25.0702286,31.9485643 23.1744429,31.9485643 M23.1744429,17.2907786 C24.6907286,17.2907786 25.9237286,18.5242071 25.9237286,20.0404929 C25.9237286,21.5565643 24.6907286,22.7899929 23.1744429,22.7899929 C21.6581571,22.7899929 20.4247286,21.5565643 20.4247286,20.0404929 C20.4247286,18.5242071 21.6581571,17.2907786 23.1744429,17.2907786 M26.4440143,23.8380643 C27.5478,22.8902786 28.2056571,21.5021357 28.2056571,20.0404929 C28.2056571,17.2661357 25.9485857,15.0092786 23.1744429,15.0092786 C20.3998714,15.0092786 18.1430143,17.2661357 18.1430143,20.0404929 C18.1430143,21.5021357 18.8008714,22.8902786 19.9046571,23.8380643 C18.3742286,24.8994214 17.4547286,26.6197071 17.4547286,28.51035 C17.4547286,31.6642071 20.0203714,34.2300643 23.1744429,34.2300643 C26.3285143,34.2300643 28.8941571,31.6642071 28.8941571,28.51035 C28.8941571,26.6197071 27.9744429,24.8994214 26.4440143,23.8380643" id="Fill-8" fill="#FFFFFF" mask="url(#mask-8)"></path>
                                    </g>
                                </g>
                            </g>
                        </g>
                    </g>
                </g>
            </g>
        </g>
    </g>
</svg>

<svg width="48" height="48" xmlns="http://www.w3.org/2000/svg" xmlns:xlink="http://www.w3.org/1999/xlink"><defs><path id="a" d="M0 .151h47.849V48H0"/><path id="c" d="M0 .151h47.849V48H0"/><path id="e" d="M0 .151h47.849V48H0"/><path id="g" d="M0 .151h47.849V48H0"/></defs><g fill="none" fill-rule="evenodd"><mask id="b" fill="#fff"><use xlink:href="#a"/></mask><path d="M47.033.151H.816A.816.816 0 000 .968v46.216c0 .45.365.816.816.816h46.217c.45 0 .816-.365.816-.816V.968a.816.816 0 00-.816-.817" fill="#000" mask="url(#b)"/><mask id="d" fill="#fff"><use xlink:href="#c"/></mask><path d="M14.629 33.675a.283.283 0 01-.283.282h-1.8a.282.282 0 01-.282-.282V17.59h-2.35a.283.283 0 01-.283-.282v-1.71c0-.157.127-.283.283-.283h4.432c.156 0 .283.126.283.282v18.078z" fill="#FFF" mask="url(#d)"/><mask id="f" fill="#fff"><use xlink:href="#e"/></mask><path d="M39.306 17.308a.283.283 0 01-.283.282h-4.938v5.608h4.068c.156 0 .282.127.282.283v1.71a.283.283 0 01-.282.282h-4.068v8.202a.282.282 0 01-.283.282h-1.8a.282.282 0 01-.282-.282V15.597c0-.156.127-.282.283-.282h7.02c.156 0 .283.126.283.282v1.71z" fill="#FFF" mask="url(#f)"/><mask id="h" fill="#fff"><use xlink:href="#g"/></mask><path d="M23.174 31.949a3.442 3.442 0 01-3.438-3.439 3.442 3.442 0 013.438-3.438 3.442 3.442 0 013.438 3.438 3.442 3.442 0 01-3.438 3.439m0-14.658a2.752 2.752 0 012.75 2.75 2.752 2.752 0 01-2.75 2.749 2.753 2.753 0 01-2.75-2.75 2.753 2.753 0 012.75-2.75m3.27 6.548a5.026 5.026 0 001.762-3.798 5.037 5.037 0 00-5.032-5.03 5.037 5.037 0 00-5.031 5.03c0 1.462.658 2.85 1.762 3.798a5.657 5.657 0 00-2.45 4.672 5.726 5.726 0 005.72 5.72 5.726 5.726 0 005.72-5.72c0-1.89-.92-3.61-2.451-4.672" fill="#FFF" mask="url(#h)"/></g></svg>
